!!!COM: Palestrina, Giovanni Perluigi da
!!!OPR: De beata virgine (1570)
!!!OTL: Kyrie II
**kern	**kern	**kern	**kern	**kern	**kern
*Ibass	*Itenor	*Itenor	*Icalto	*Icant	*Icant
!Bassus	!Tenor 2	!Tenor 1	!Altus	!Cantus 2	!Cantus 1
*clefF4	*clefGv2	*clefGv2	*clefG2	*clefG2	*clefG2
*k[b-]	*k[b-]	*k[b-]	*k[b-]	*k[b-]	*k[b-]
*?:X	*?:X	*?:X	*?:X	*?:X	*?:X
*M4/2	*M4/2	*M4/2	*M4/2	*M4/2	*M4/2
=1	=1	=1	=1	=1	=1
0r	0r	0d	0r	0r	1r
.	.	.	.	.	[1dd
=2	=2	=2	=2	=2	=2
0r	0r	1f	0r	0r	2dd]
.	.	.	.	.	2cc
.	.	1g	.	.	2ee-
.	.	.	.	.	[2dd
=3	=3	=3	=3	=3	=3
0r	0r	1g	0r	1.dd	2dd]
.	.	.	.	.	4cc
.	.	.	.	.	4b-
.	.	1f	.	.	4a
.	.	.	.	.	4g
.	.	.	.	2cc	2a
=4	=4	=4	=4	=4	=4
0r	0r	1g	0r	2ee-	2g
.	.	.	.	1dd	1b-
.	.	[1d	.	.	.
.	.	.	.	4cc	4a
.	.	.	.	4b-	4g
=5	=5	=5	=5	=5	=5
0r	0r	2d]	0r	2a	2f
.	.	2e-	.	2g	1g
.	.	2c	.	1a	.
.	.	2d	.	.	2f
=6	=6	=6	=6	=6	=6
1r	0r	1G	0r	2g	4b-
.	.	.	.	.	4cc
.	.	.	.	1b-	1dd
[1D	.	[1d	.	.	.
.	.	.	.	4a	4cc
.	.	.	.	4g	4b-
=7	=7	=7	=7	=7	=7
1D]	1.d	2d]	0r	2.f	0a
.	.	4c	.	.	.
.	.	4B-	.	4g	.
1F	.	1A	.	4a	.
.	.	.	.	4b-	.
.	2c	.	.	[2cc	.
=8	=8	=8	=8	=8	=8
1G	2e-	1r	0r	2cc]	0g
.	1d	.	.	4b-	.
.	.	.	.	4a	.
1G	.	[1d	.	4b-	.
.	.	.	.	4cc	.
.	4c	.	.	4dd	.
.	4B-	.	.	4ee	.
=9	=9	=9	=9	=9	=9
1F	4A	2d]	1a	1ff	1r
.	4G	.	.	.	.
.	2A	2c	.	.	.
1G	2.B-	2e-	2g	1r	2r
.	.	[2d	[2b-	.	2dd
.	4c	.	.	.	.
=10	=10	=10	=10	=10	=10
2.D	1d	2d]	2b-]	0r	2.ff
.	.	4c	1a	.	.
4E	.	4B-	.	.	8ee
.	.	.	.	.	8dd
2F	1r	2A	.	.	2cc
2G	.	2d	4g	.	2b-
.	.	.	4f	.	.
=11	=11	=11	=11	=11	=11
2A	0r	2c	2e	0r	2a
2B-	.	1d	2d	.	2g
1A	.	.	1e	.	[1a
.	.	2c	.	.	.
=12	=12	=12	=12	=12	=12
1D	0d	2.f	2r	1r	1a]
.	.	.	2d	.	.
.	.	4e	.	.	.
1r	.	4d	2f	[1dd	1r
.	.	4c	.	.	.
.	.	2B-	2g	.	.
=13	=13	=13	=13	=13	=13
0r	1f	2F	2a	2dd]	0r
.	.	2A	1cc	2cc	.
.	1g	[1G	.	2ee-	.
.	.	.	4b-	[2dd	.
.	.	.	4a	.	.
=14	=14	=14	=14	=14	=14
0r	1g	1G]	2b-	2dd]	1.dd
.	.	.	2g	4cc	.
.	.	.	.	4b-	.
.	1f	1r	2r	4a	.
.	.	.	.	4g	.
.	.	.	[2cc	2a	2cc
=15	=15	=15	=15	=15	=15
0r	1g	1r	2cc]	4g	2ee-
.	.	.	.	4a	.
.	.	.	1b-	4b-	1dd
.	.	.	.	4cc	.
.	1d	2r	.	4dd	.
.	.	.	.	4ee	.
.	.	[2d	4a	[2ff	4cc
.	.	.	4g	.	4b-
=16	=16	=16	=16	=16	=16
0r	0r	2d]	4f	2ff]	2a
.	.	.	4g	.	.
.	.	2c	2.a	4ee-	2.cc
.	.	.	.	4dd	.
.	.	1e-	.	1cc	.
.	.	.	4g	.	4b-
.	.	.	[2g	.	2g
=17	=17	=17	=17	=17	=17
2r	1r	2.d	2g]	1dd	1a
1d	.	.	2f#	.	.
.	.	4c	.	.	.
.	2r	2B	2g	1r	[1g
2c	[2g	2c	2e	.	.
=18	=18	=18	=18	=18	=18
2B	4g]	2G	2d	0r	1g]
.	4f	.	.	.	.
1c	1e	2.g	2c	.	.
.	.	.	1g	.	1r
.	.	4f	.	.	.
2B-	2d	2d	.	.	.
=19	=19	=19	=19	=19	=19
2A	2c	2e	0r	2r	0r
2G	2B	2g	.	1dd	.
1A	1c	2f	.	.	.
.	.	2e	.	2cc	.
=20	=20	=20	=20	=20	=20
2G	2d	2g	2r	2b	0r
1F	2.f	2c	1a	1cc	.
.	.	1d	.	.	.
.	4e-	.	.	.	.
2G	4d	.	2g	2b-	.
.	4c	.	.	.	.
=21	=21	=21	=21	=21	=21
2D	2d	1r	2f#	2a	0r
2E-	2G	.	1g	2g	.
1D	[1d	2r	.	1a	.
.	.	[2d	2f#	.	.
=22	=22	=22	=22	=22	=22
1G	1d]	4d]	1g	2g	2r
.	.	4c	.	.	.
.	.	1B-	.	1b-	1dd
1r	1r	.	2.f	.	.
.	.	2F	.	2a	2cc
.	.	.	4e	.	.
=23	=23	=23	=23	=23	=23
0r	0r	2G	2d	2g	2b
.	.	2A	2c	2f	1cc
.	.	1G	2.d	2g	.
.	.	.	.	[2dd	2b-
.	.	.	4e	.	.
=24	=24	=24	=24	=24	=24
1r	0r	2d	2f#	2dd]	2a
.	.	2e-	1g	2cc	2g
[1D	.	[1d	.	1dd	[1a
.	.	.	4f#	.	.
.	.	.	4e	.	.
=25	=25	=25	=25	=25	=25
1D]	0d	1d]	1f#	2r	1a]
.	.	.	.	2a	.
1G	.	2r	1g	2b	2g
.	.	[2G	.	2b	2dd
=26	=26	=26	=26	=26	=26
1C	0c	2G]	2r	2.cc	2ee
.	.	1c	2g	.	2ee
.	.	.	.	4b-	.
1F	.	.	2a	4a	2.ff
.	.	.	.	4g	.
.	.	2A	2a	[2f	.
.	.	.	.	.	4ee
=27	=27	=27	=27	=27	=27
1BB-	0B-	2.d	2.b-	2f]	4dd
.	.	.	.	.	4cc
.	.	.	.	2d	1b-
.	.	4c	8a	.	.
.	.	.	8g	.	.
1r	.	4d	1f	2r	.
.	.	4e	.	.	.
.	.	2f	.	2dd	2a
=28	=28	=28	=28	=28	=28
1C	0c	4e	2r	2ee	1g
.	.	4d	.	.	.
.	.	4c	2g	2ee	.
.	.	4B-	.	.	.
1F	.	1A	2a	2.ff	1f
.	.	.	2a	.	.
.	.	.	.	4ee	.
=29	=29	=29	=29	=29	=29
0G	0B-	1d	2.b-	4dd	1r
.	.	.	.	4cc	.
.	.	.	.	2dd	.
.	.	.	4a	.	.
.	.	1d	4g	2b-	2r
.	.	.	4f	.	.
.	.	.	2g	2g	2b-
=30	=30	=30	=30	=30	=30
1F	0A	2.f	1c	2a	2cc
.	.	.	.	2.ff	2cc
.	.	4g	.	.	.
1D	.	2a	1f	.	2.dd
.	.	.	.	4ee	.
.	.	2A	.	[2dd	.
.	.	.	.	.	4cc
=31	=31	=31	=31	=31	=31
4G	0G	1.B-	2.d	4dd]	4b-
4A	.	.	.	4cc	4a
4B-	.	.	.	4b-	2g
4c	.	.	4c	4a	.
1d	.	.	4B-	2g	2.b-
.	.	.	4G	.	.
.	.	2G	[2g	2b-	.
.	.	.	.	.	4cc
=32	=32	=32	=32	=32	=32
0D	0A	[0d	2g]	0a	0dd
.	.	.	4f	.	.
.	.	.	4e	.	.
.	.	.	1f#	.	.
=33	=33	=33	=33	=33	=33
0G	0G	0d]	0g	0b	0dd
==	==	==	==	==	==
*-	*-	*-	*-	*-	*-
!!!CDT: 1525/^1526/-1594/2/2
!!!OCY: Italia
!!!AGN: Mass (Paraphrase)
!!!AST: renaissance, vocal
!!!ASW: Gregorian Mass
!!!PWK: Masses, Book 3
!!!RNB: Cadence finals: G,D,C,E,F
!!!YOR: Le Opere Complete, v. 6, p. 175
!!!YOO: Rome, Italy: Fratelli Scalera
!!!END: 1992//
!!!EED: John Miller
!!!YEC: Copyright 2000, John Miller
!!!YEN: United States of America
!!!YEM: Rights to all derivative electronic formats reserved.
!!!YEM: Refer to licensing agreement for further details.
!!!YEM: This file must be accompanied by the licensing agreement.
!!!YEM: A copy of the licensing agreement may be found at http://www.music-cog.ohio-state.edu/HumdrumDatabases/Palestrina/license.txt
!!!EMD: converted to Humdrum by Bret Aarden
